X: 81
%
U:~=!turn!
T: The Caledonian Hunt
C:
O:Scotland
B:Keith Norman MacDonald : "The Skye collection of the best reels & strathspeys extant" : 1887
Z:Ralph Palmer
R:Reel
M:C|
L:1/8
K:A mixolydian
e | TcA A/2A/2A EAA=c | BGdB gded | TcA A/2A/2A (EA)(A=c) | BGgB AA/2A/2 A :: g | agab abae | gaeg BGdB |
agab abae | degB A/2A/2A (Ag) | abga egdg | Bgdg BGdB | =cAdB dega | gegB A/2A/2A :|
W:I am indebted to Mr. John Dow, Newport, for several fine old tunes from Ross's,
W:Porteous, and Petrie's Collections.


